X:914
T:Scottish Marches
T:Scotland the Brave
C:Traditional Scottish
%%MIDI program 21     Accordion
%%MIDI chordprog 21   Accordion
%%MIDI bassprog 21    Accordion
S:Colin Hume's website,  colinhume.com  - chords can also be printed below the stave.
Q:1/2=112
M:2/2
R:March
L:1/4
K:G
P:A
"G"G2 G3/A/ | "G"BG Bd | "G"g2 g3/f/ | "/"gd BG | "C"c2 e3/c/ | "G"Bd BG | "D"A2 d3/e/ | "D7"dc BA |
"G"G2 G3/A/ | "/"BG Bd | "G"g2 g3/f/ | "/"gd BG | "C"c2 e3/c/ | "G"Bd "Em"BG | "D7"A2 G3/F/ | "G"G4 |
P:B
"D"a2 a3/a/ | "/"af d2 | "G"g2 b3/a/ | "G"ge d2 | "Em"g2 gg | "D"f2 gf | "A7"eg fe | "D7"dc BA |
"G"G2 G3/A/ | "/"BG Bd | "G"g2 g3/f/ | "/"gd BG | "C"c2 e3/c/ | "G"Bd "Em"BG | "D7"A2 G3/F/ | "G"G4 |]
N:Replace by blank line and X field
T:The Black Bear
C:Traditional Scottish
Q:1/2=112
L:1/4
M:2/2
R:March
K:D
P:A
|: A | "D"dd f/d/a/f/ | "/"dd f/d/a/f/ | "G"eB "E7"Be/d/ | "A7"c/d/B/c/ A/B/c/A/ | "D"dd f/d/a/f/ | "/"dd f/d/a/f/ | "Em"ee "A7"e/g/f/e/ | "D"df d :|
P:B
e | "A"AA/B/ "Bm"dd/e/ | "Em"gf/e/ "D"f/a/f/d/ | "A"AA/B/ "Bm"dd/e/ | "Em"gf/e/ "D"f/a/f/d/ | "A"a/A/A/A/ c/A/A/A/ | "Em"d/B/B/B/ "A"e/c/c/c/ | "Bm"dd "Em"e/g/f/g/ | "A7"aa a/g/f/e/ |
"D"dd f/d/a/f/ | dd f/d/a/f/ | "G"eB "E7"Be/d/ | "A7"c/d/B/c/ A/B/c/A/ | "D"dd f/d/a/f/ | "/"dd f/d/a/f/ | "Em"ee "A7"e/g/f/e/ | "D"df d |]
N:Replace by blank line and X field
T:The Barren Rocks of Aden
C:James Mauchline, Alexander Mackellar
Q:1/2=112
M:2/2
R:March
L:1/4
K:D
P:A
|: d/e/ | "D"f>g fe | "/"df A>d | "A7"ce Ad/e/ | "D"fA de |\
"D"f>g fe | "/"df A>d | "A7"ce Af/e/ | "D"d3 :|
P:B
|: f/g/ | "D"a>f df | "A7"ef Ae/f/ | "A7"g>e ce | "D"df Af/g/ |\
"D"a>f df | "A7"ef Ae/f/ | "A7"ge ce | "D"d3 :|
N:Replace by blank line and X field
T:Atholl Highlanders
C:Traditional Scottish
M:6/8
R:March
L:1/8
Q:3/8=112
K:A
P:A
|: c/d/ | "A"e3 ecA | "A"ecA "E7"Bcd | "A"e3 ecA | "Bm"Bcd "E7"cBA |\
"A"e3 ecA | "A"ecA "E7"Bcd | "A"eae "D"fed | "E7"cdB "A"A2 :|
P:B
|: e | "A"Ace Ace | "D"Adf Adf | "A"Ace Ace | "Bm"Bcd "E7"c2B |\
"A"Ace Ace | "D"Adf Adf | "A"eae "D"fed | "E7"cdB "A"A2 :|
P:C
|: e | "A"a2e edc | "A"a2e edc | "A"a2e edc | "D"Bcd "E7"cBA |
"A"a2e edc | "A"a2e edc | "A"a2e "D"fed | "E7"cdB "A"A2 :|
P:D
|: A/B/ | "A"cAc cAc | "D"dBd dBd | "A"cAc cAc | "G"B=GB BGB |
"A"cAc cAc | "Bm"dBd dBd | "A"eae "D"fed | "E7"cdB "A"A2 :|

